Adwaita++/actions/symbolic/edit-select-symbolic.svg

<svg height="16" width="16" xmlns="http://www.w3.org/2000/svg">
  <g fill="#474747">
    <path d="m12.293 5.293-2.707 2.707 2.707 2.707 1.414-1.414-1.293-1.293 1.293-1.293z"/>
    <path d="m13 10h1v1h-1zm0-5h1v1h-1z"/>
    <path d="m13 5c.554 0 1 .446 1 1s-.446 1-1 1-1-.446-1-1 .446-1 1-1zm0 4c.554 0 1 .446 1 1s-.446 1-1 1-1-.446-1-1 .446-1 1-1z"/>
    <path d="m3.707 5.293-1.414 1.414 1.293 1.293-1.293 1.293 1.414 1.414 2.707-2.707z"/>
    <path d="m3 10h-1v1h1zm0-5h-1v1h1z"/>
    <path d="m3 5c-.554 0-1 .446-1 1s.446 1 1 1 1-.446 1-1-.446-1-1-1zm0 4c-.554 0-1 .446-1 1s.446 1 1 1 1-.446 1-1-.446-1-1-1z"/>
  </g>
</svg>

<svg xmlns="http://www.w3.org/2000/svg" width="16" height="16">
    <g color="#000" fill="#474747">
        <path d="M12.293 5.293L9.586 8l2.707 2.707 1.414-1.414L12.414 8l1.293-1.293z" style="line-height:normal;font-variant-ligatures:normal;font-variant-position:normal;font-variant-caps:normal;font-variant-numeric:normal;font-variant-alternates:normal;font-feature-settings:normal;text-indent:0;text-align:start;text-decoration-line:none;text-decoration-style:solid;text-decoration-color:#000;text-transform:none;text-orientation:mixed;shape-padding:0;isolation:auto;mix-blend-mode:normal;marker:none" font-weight="400" font-family="sans-serif" white-space="normal" overflow="visible"/>
        <path d="M13 10h1v1h-1zM13 5h1v1h-1z" style="marker:none" overflow="visible"/>
        <path d="M13 5c.554 0 1 .446 1 1s-.446 1-1 1-1-.446-1-1 .446-1 1-1zM13 9c.554 0 1 .446 1 1s-.446 1-1 1-1-.446-1-1 .446-1 1-1z" style="marker:none" overflow="visible"/>
        <path d="M3.707 5.293L2.293 6.707 3.586 8 2.293 9.293l1.414 1.414L6.414 8z" style="line-height:normal;font-variant-ligatures:normal;font-variant-position:normal;font-variant-caps:normal;font-variant-numeric:normal;font-variant-alternates:normal;font-feature-settings:normal;text-indent:0;text-align:start;text-decoration-line:none;text-decoration-style:solid;text-decoration-color:#000;text-transform:none;text-orientation:mixed;shape-padding:0;isolation:auto;mix-blend-mode:normal;marker:none" font-weight="400" font-family="sans-serif" white-space="normal" overflow="visible"/>
        <path d="M3 10H2v1h1zM3 5H2v1h1z" style="marker:none" overflow="visible"/>
        <path d="M3 5c-.554 0-1 .446-1 1s.446 1 1 1 1-.446 1-1-.446-1-1-1zM3 9c-.554 0-1 .446-1 1s.446 1 1 1 1-.446 1-1-.446-1-1-1z" style="marker:none" overflow="visible"/>
    </g>
</svg>
